actions/system-shutdown-symbolic.svg

<?xml version="1.0" encoding="UTF-8" standalone="no"?>
<!-- Created with Inkscape (http://www.inkscape.org/) -->

<svg
   xmlns:dc="http://purl.org/dc/elements/1.1/"
   xmlns:cc="http://creativecommons.org/ns#"
   xmlns:rdf="http://www.w3.org/1999/02/22-rdf-syntax-ns#"
   xmlns:svg="http://www.w3.org/2000/svg"
   xmlns="http://www.w3.org/2000/svg"
   xmlns:sodipodi="http://sodipodi.sourceforge.net/DTD/sodipodi-0.dtd"
   xmlns:inkscape="http://www.inkscape.org/namespaces/inkscape"
   width="16"
   height="16"
   id="svg4152"
   version="1.1"
   inkscape:version="0.92.2 5c3e80d, 2017-08-06"
   viewBox="0 0 16 16"
   sodipodi:docname="system-shutdown-symbolic.svg">
  <defs
     id="defs4154" />
  <sodipodi:namedview
     id="base"
     pagecolor="#ededed"
     bordercolor="#000000"
     borderopacity="0.49803922"
     inkscape:pageopacity="0"
     inkscape:pageshadow="2"
     inkscape:zoom="31.392433"
     inkscape:cx="5.8949536"
     inkscape:cy="7.4735273"
     inkscape:current-layer="layer1"
     showgrid="true"
     inkscape:grid-bbox="true"
     inkscape:document-units="px"
     inkscape:showpageshadow="false"
     borderlayer="true"
     inkscape:window-width="1920"
     inkscape:window-height="1012"
     inkscape:window-x="0"
     inkscape:window-y="32"
     inkscape:window-maximized="1">
    <inkscape:grid
       type="xygrid"
       id="grid4700"
       color="#000000"
       opacity="0.0627451"
       empcolor="#000000"
       empopacity="0.1254902"
       empspacing="4"
       spacingx="2"
       spacingy="2" />
  </sodipodi:namedview>
  <metadata
     id="metadata4157">
    <rdf:RDF>
      <cc:Work
         rdf:about="">
        <dc:format>image/svg+xml</dc:format>
        <dc:type
           rdf:resource="http://purl.org/dc/dcmitype/StillImage" />
        <dc:title />
      </cc:Work>
    </rdf:RDF>
  </metadata>
  <g
     id="layer1"
     inkscape:label="Layer 1"
     inkscape:groupmode="layer">
    <path
       style="color:#000000;font-style:normal;font-variant:normal;font-weight:normal;font-stretch:normal;font-size:medium;line-height:normal;font-family:sans-serif;font-variant-ligatures:normal;font-variant-position:normal;font-variant-caps:normal;font-variant-numeric:normal;font-variant-alternates:normal;font-feature-settings:normal;text-indent:0;text-align:start;text-decoration:none;text-decoration-line:none;text-decoration-style:solid;text-decoration-color:#000000;letter-spacing:normal;word-spacing:normal;text-transform:none;writing-mode:lr-tb;direction:ltr;text-orientation:mixed;dominant-baseline:auto;baseline-shift:baseline;text-anchor:start;white-space:normal;shape-padding:0;clip-rule:nonzero;display:inline;overflow:visible;visibility:visible;opacity:1;isolation:auto;mix-blend-mode:normal;color-interpolation:sRGB;color-interpolation-filters:linearRGB;solid-color:#000000;solid-opacity:1;vector-effect:none;fill:#000000;fill-opacity:1;fill-rule:nonzero;stroke:none;stroke-width:2;stroke-linecap:round;stroke-linejoin:round;stroke-miterlimit:4;stroke-dasharray:none;stroke-dashoffset:0;stroke-opacity:1;color-rendering:auto;image-rendering:auto;shape-rendering:auto;text-rendering:auto;enable-background:accumulate"
       d="M 3.03125,2.0410156 A 1.0001,1.0001 0 0 0 2.34375,2.34375 C 0.05779682,4.6297033 -0.62777404,8.0738051 0.609375,11.060547 1.846524,14.047289 4.767174,16 8,16 11.232826,16 14.153476,14.047289 15.390625,11.060547 16.627774,8.073805 15.942203,4.6297031 13.65625,2.34375 a 1.0001,1.0001 0 1 0 -1.414062,1.4140625 c 1.718018,1.7180187 2.230566,4.2943628 1.300781,6.5390625 C 12.613184,12.541575 10.429645,14 8,14 5.5703546,14 3.3868164,12.541575 2.4570312,10.296875 1.5272461,8.0521753 2.0397938,5.4758313 3.7578125,3.7578125 A 1.0001,1.0001 0 0 0 3.03125,2.0410156 Z"
       id="path815"
       inkscape:connector-curvature="0" />
    <path
       style="color:#000000;font-style:normal;font-variant:normal;font-weight:normal;font-stretch:normal;font-size:medium;line-height:normal;font-family:sans-serif;font-variant-ligatures:normal;font-variant-position:normal;font-variant-caps:normal;font-variant-numeric:normal;font-variant-alternates:normal;font-feature-settings:normal;text-indent:0;text-align:start;text-decoration:none;text-decoration-line:none;text-decoration-style:solid;text-decoration-color:#000000;letter-spacing:normal;word-spacing:normal;text-transform:none;writing-mode:lr-tb;direction:ltr;text-orientation:mixed;dominant-baseline:auto;baseline-shift:baseline;text-anchor:start;white-space:normal;shape-padding:0;clip-rule:nonzero;display:inline;overflow:visible;visibility:visible;opacity:1;isolation:auto;mix-blend-mode:normal;color-interpolation:sRGB;color-interpolation-filters:linearRGB;solid-color:#000000;solid-opacity:1;vector-effect:none;fill:#000000;fill-opacity:1;fill-rule:nonzero;stroke:none;stroke-width:2;stroke-linecap:round;stroke-linejoin:round;stroke-miterlimit:4;stroke-dasharray:none;stroke-dashoffset:0;stroke-opacity:1;color-rendering:auto;image-rendering:auto;shape-rendering:auto;text-rendering:auto;enable-background:accumulate"
       d="M 7.984375,-0.01367188 A 1.0001,1.0001 0 0 0 7,1 V 8 A 1.0001,1.0001 0 1 0 9,8 V 1 A 1.0001,1.0001 0 0 0 7.984375,-0.01367188 Z"
       id="path817"
       inkscape:connector-curvature="0" />
  </g>
</svg>

<svg xmlns="http://www.w3.org/2000/svg" width="16" height="16">
    <path d="M3.031 2.041a1 1 0 0 0-.687.303A8.004 8.004 0 0 0 .609 11.06 8.006 8.006 0 0 0 8 16a8.006 8.006 0 0 0 7.39-4.94 8.004 8.004 0 0 0-1.734-8.716 1 1 0 1 0-1.414 1.414 5.995 5.995 0 0 1 1.301 6.539A5.993 5.993 0 0 1 8 14a5.993 5.993 0 0 1-5.543-3.703 5.995 5.995 0 0 1 1.3-6.54 1 1 0 0 0-.726-1.716z"/>
    <path d="M7.984-.014A1 1 0 0 0 7 1v7a1 1 0 1 0 2 0V1A1 1 0 0 0 7.984-.014z"/>
</svg>
